!!!COM: Music21
!!!OTL: Farruquiña
!!!OMV: pezas_polca_farruquina_farruquina-partitura-1.musicxml
**kern
*part1
*staff1
*I"Gaita
*I'Bag
*clefG^2
*k[]
*M2/4
*MM92
=1
!LO:TX:a:t=[quarter]=92
8.cccL
16ggJk
16aaLL
16gg
16aa
16bbJJ
=
8cccL
8ggJ
8aaL
8bbJ
=
8cccL
16bbL
16cccJJ
16dddLL
16ccc
16bb
16aaJJ
=
8.ggL
16eeJk
16ggLL
16ff
16ee
16ddJJ
=
8.ccL
16ddJk
16eeLL
16dd
16ee
16ffJJ
=
8.ggL
16aaJk
16bbLL
16ccc
16bb
16ggJJ
=
24aaLL
24bb
24aaJJ
[4.gg
!!linebreak:original
=
4.gg]
16eeLL
16ffJJ
=
8.ggL
16eeJk
16ggLL
16ee
16gg
16bbJJ
=
16aaLL
16gg
16ff
16eeJJ
8ddL
16ddL
16ffJJ
=
8.aaL
16ffJk
16aaLL
16ff
16aa
16cccJJ
=
16bbLL
16aa
16gg
16ffJJ
8eeL
16eeL
16ffJJ
=
8.ggL
16eeJk
16ggLL
16ee
16gg
16bbJJ
!!linebreak:original
=
16aaLL
16gg
16ff
16eeJJ
16ddLL
16ee
16ff
16ggJJ
=
16aaLL
16gg
16ff
16eeJJ
16ddLL
16ee
16ff
16ggJJ
=
16bbLL
16aa
16gg
16ffJJ
8eeL
16eeL
16ffJJ
=
8.ggL
16eeJk
16ggLL
16ee
16gg
16bbJJ
=
16aaLL
16gg
16ff
16eeJJ
8ddL
16ddL
16ffJJ
=
8.aaL
16ffJk
16aaLL
16ff
16aa
16cccJJ
!!linebreak:original
=
16bbLL
16aa
16gg
16ffJJ
8eeL
16eeL
16ffJJ
=
8.ggL
16eeJk
16ggLL
16ee
16gg
16bbJJ
=
16aaLL
16gg
16ff
16eeJJ
8ddL
8ddJ
=
8aaL
8ggJ
8bbL
8aaJ
=
8ffL
8ddJ
[4ee
=
8eeL]
16eeL
16ffJJ
8.ggL
16eeJk
=
16ggLL
16ee
16gg
16bbJJ
16aaLL
16gg
16ff
16eeJJ
!!linebreak:original
=
8ddL
16ddL
16ffJJ
8.aaL
16ffJk
=
16aaLL
16ff
16aa
16cccJJ
16bbLL
16aa
16gg
16ffJJ
=
8eeL
16eeL
16ffJJ
8.ggL
16eeJk
=
16ggLL
16ee
16gg
16bbJJ
16aaLL
16gg
16ff
16eeJJ
=
16ddLL
16ee
16ff
16ggJJ
16aaLL
16gg
16ff
16eeJJ
=
16ddLL
16ee
16ff
16ggJJ
16bbLL
16aa
16gg
16ffJJ
!!linebreak:original
=
8eeL
16eeL
16ffJJ
8.ggL
16eeJk
=
16ggLL
16ee
16gg
16bbJJ
16aaLL
16gg
16ff
16eeJJ
=
8ddL
16ddL
16ffJJ
8.aaL
16ffJk
=
16aaLL
16ff
16aa
16cccJJ
16bbLL
16aa
16gg
16ffJJ
=
8eeL
16eeL
16ffJJ
8.ggL
16eeJk
=
16ggLL
16ee
16gg
16bbJJ
16aaLL
16gg
16ff
16eeJJ
!!pagebreak:original
=
8ddL
8ddJ
8aaL
8ggJ
=
8bbL
8aaJ
8ffL
8ddJ
=
[4ee
8eeL]
16ccL
16eeJJ
=
16ggLL
16ff
16ee
16ddJJ
16ggLL
16ff
16ee
16ddJJ
=
8aaL
16ggL
16eeJJ
16ccLL
16ee
16cc
16eeJJ
=
16ggLL
16ff
16ee
16ddJJ
16ggLL
16ff
16ee
16ddJJ
=
8ccL
16bL
16ddJJ
8ccL
16ccL
16eeJJ
!!linebreak:original
=
16ggLL
16ff
16ee
16ddJJ
16ggLL
16ff
16ee
16ddJJ
=
8aaL
16ggL
16eeJJ
16ccLL
16ee
16cc
16eeJJ
=
16ggLL
16ff
16ee
16ddJJ
16ggLL
16ff
16ee
16ddJJ
=
4.cc
16cccLL
16bbJJ
=||
16aaLL
16bb
16aa
16ggJJ
16ffLL
16ccc
16bb
16aaJJ
=
16ggLL
16aa
16gg
16ffJJ
8eeL
16aaL
16ggJJ
!!linebreak:original
=
16ffLL
16gg
16ff
16eeJJ
16ddLL
16aa
16gg
16ffJJ
=
24aaLL
24bb
24aaJ
[8ggJ
8ggL]
16cccL
16bbJJ
=
16aaLL
16bb
16aa
16ggJJ
16ffLL
16ccc
16bb
16aaJJ
=
16ggLL
16aa
16gg
16ffJJ
8eeL
16aaL
16ggJJ
=
16ffLL
16gg
16ff
16eeJJ
16ddLL
16aa
16gg
16ffJJ
=
4.ee
16cccLL
16bbJJ
!!linebreak:original
=||
16aaLL
16bb
16aa
16ggJJ
16ffLL
16ccc
16bb
16aaJJ
=
16ggLL
16aa
16gg
16ffJJ
8eeL
16aaL
16ggJJ
=
16ffLL
16gg
16ff
16eeJJ
16ddLL
16aa
16gg
16ffJJ
=
24aaLL
24bb
24aaJ
[8ggJ
8ggL]
16cccL
16bbJJ
=
16aaLL
16bb
16aa
16ggJJ
16ffLL
16ccc
16bb
16aaJJ
=
16ggLL
16aa
16gg
16ffJJ
8eeL
16aaL
16ggJJ
!!linebreak:original
=
16ffLL
16gg
16ff
16eeJJ
16ddLL
16aa
16gg
16ffJJ
=||
2cc
=||
16ccLL
16cc
16ee
16ggJJ
8ccc
8r
==
*-
!!!system-decoration: s1,s2
